Numix/128x128/categories/applications-biology.svg

<?xml version="1.0" encoding="UTF-8" standalone="no"?>
<svg
   xmlns:dc="http://purl.org/dc/elements/1.1/"
   xmlns:cc="http://creativecommons.org/ns#"
   xmlns:rdf="http://www.w3.org/1999/02/22-rdf-syntax-ns#"
   xmlns:svg="http://www.w3.org/2000/svg"
   xmlns="http://www.w3.org/2000/svg"
   xmlns:sodipodi="http://sodipodi.sourceforge.net/DTD/sodipodi-0.dtd"
   xmlns:inkscape="http://www.inkscape.org/namespaces/inkscape"
   width="128"
   height="128"
   viewBox="0 0 128 128"
   id="svg2"
   version="1.1"
   inkscape:version="0.91 r"
   sodipodi:docname="applications-biology.svg">
  <metadata
     id="metadata40">
    <rdf:RDF>
      <cc:Work
         rdf:about="">
        <dc:format>image/svg+xml</dc:format>
        <dc:type
           rdf:resource="http://purl.org/dc/dcmitype/StillImage" />
        <dc:title />
      </cc:Work>
    </rdf:RDF>
  </metadata>
  <defs
     id="defs38" />
  <sodipodi:namedview
     pagecolor="#ffffff"
     bordercolor="#666666"
     borderopacity="1"
     objecttolerance="10"
     gridtolerance="10"
     guidetolerance="10"
     inkscape:pageopacity="0"
     inkscape:pageshadow="2"
     inkscape:window-width="1920"
     inkscape:window-height="1056"
     id="namedview36"
     showgrid="false"
     inkscape:zoom="7.375"
     inkscape:cx="16"
     inkscape:cy="16"
     inkscape:window-x="0"
     inkscape:window-y="24"
     inkscape:window-maximized="1"
     inkscape:current-layer="svg2" />
  <g
     style="fill:#d68b85;stroke:#d68b85;stroke-width:0.24961208"
     id="g4"
     transform="matrix(4.006145,0,0,4.0062876,0.56307074,0.56711978)">
    <path
       style="stroke-width:0.07737975"
       d="m 110.78738,199.20581 c 0.78988,-1.08446 0.52659,-2.63787 -0.55584,-3.39993 L 71.351885,167.87374 c -1.111683,-0.76205 -2.632934,-0.52757 -3.422814,0.55689 -0.78988,1.11376 -0.526587,2.63787 0.555841,3.39992 l 38.908918,27.93214 c 1.11168,0.79136 2.60367,0.52758 3.39355,-0.55688 z"
       transform="matrix(0.13353,0,0,0.13328,-4.89054,-0.40072)"
       id="path6"
       inkscape:connector-curvature="0" />
    <path
       style="stroke-width:0.07513324"
       d="m 104.93642,182.35273 c 0.96541,-0.93791 1.08243,-2.4327 0.20478,-3.37061 L 74.101838,146.00871 c -0.877645,-0.9086 -2.369641,-0.9086 -3.364304,0 -0.994664,0.9086 -1.082429,2.4327 -0.204784,3.3413 l 31.03936,33.00272 c 0.87765,0.9086 2.3989,0.9086 3.36431,0 z"
       transform="matrix(0.13353,0,0,0.13328,-4.89054,-0.40072)"
       id="path8"
       inkscape:connector-curvature="0" />
    <path
       style="stroke-width:0.07737975"
       d="m 195.80189,99.640765 c 0.93616,-0.96722 0.93616,-2.491325 0,-3.458545 L 161.92481,62.329519 c -0.93615,-0.93791 -2.48666,-0.93791 -3.42281,0 -0.96541,0.96722 -0.96541,2.491324 0,3.458545 l 33.84782,33.852701 c 0.96541,0.937915 2.48666,0.937915 3.45207,0 z"
       transform="matrix(0.13353,0,0,0.13328,-4.89054,-0.40072)"
       id="path10"
       inkscape:connector-curvature="0" />
    <path
       style="stroke-width:0.07588207"
       d="m 193.84182,116.93349 c 0.99466,-0.93791 1.08243,-2.46202 0.17553,-3.39993 L 162.4514,80.003267 c -0.87765,-0.96722 -2.3989,-0.96722 -3.39356,-0.05862 -0.96541,0.93791 -1.05318,2.432705 -0.17553,3.399925 l 31.59521,33.530298 c 0.87764,0.96722 2.39889,0.96722 3.3643,0.0586 z"
       transform="matrix(0.13353,0,0,0.13328,-4.89054,-0.40072)"
       id="path12"
       inkscape:connector-curvature="0" />
    <path
       style="stroke-width:0.06215341"
       d="m 176.90328,119.3955 c 1.11168,-0.73274 1.66752,-1.90513 1.19945,-2.63787 L 161.39822,90.759926 c -0.46807,-0.732742 -1.78454,-0.732742 -2.89622,0 -1.14094,0.732743 -1.69678,1.905131 -1.22871,2.637873 l 16.73376,25.997701 c 0.46808,0.73274 1.75529,0.73274 2.89623,0 z"
       transform="matrix(0.13353,0,0,0.13328,-4.89054,-0.40072)"
       id="path14"
       inkscape:connector-curvature="0" />
    <path
       style="stroke-width:0.07363557"
       d="m 166.16676,140.8502 c 0.96541,-0.93791 1.02392,-2.4034 0.17553,-3.25338 L 135.74175,106.9975 c -0.84839,-0.87929 -2.34039,-0.79136 -3.27654,0.14655 -0.96541,0.96722 -1.02392,2.4327 -0.14628,3.31199 l 30.57129,30.57002 c 0.87764,0.84998 2.34039,0.79136 3.27654,-0.17586 z"
       transform="matrix(0.13353,0,0,0.13328,-4.89054,-0.40072)"
       id="path16"
       inkscape:connector-curvature="0" />
    <path
       style="stroke-width:0.05791001"
       d="m 100.16788,159.75495 c 1.1702,-0.73274 1.78455,-1.8172 1.40423,-2.46201 L 87.676075,134.40207 c -0.380313,-0.61551 -1.63827,-0.5862 -2.779208,0.11723 -1.170193,0.70344 -1.784544,1.7879 -1.404231,2.43271 l 13.89604,22.89087 c 0.409567,0.64482 1.63827,0.5862 2.779204,-0.0879 z"
       transform="matrix(0.13353,0,0,0.13328,-4.89054,-0.40072)"
       id="path18"
       inkscape:connector-curvature="0" />
    <g
       style="stroke-width:0.07737975"
       id="g20">
      <path
         d="m 231.69756,47.117786 c -5.03183,2.579253 -45.46199,-10.63942 -45.46199,-10.63942 0,0 10.32695,34.790611 12.52106,44.492121 2.19411,9.73082 2.19411,24.151193 2.19411,24.151193 -0.29255,6.56537 -2.77921,8.4705 -7.81104,14.09796 -5.03182,5.65677 -11.61416,4.71886 -14.71517,4.07405 -3.15952,-0.6155 -37.65096,-8.7636 -47.97791,-11.60664 -10.38546,-2.78442 -21.64856,-0.2931 -25.74424,2.52063 -4.06642,2.84305 -6.260531,10.66873 -6.260531,10.66873 -5.324377,22.89088 17.231091,68.96572 17.231091,68.96572 -1.87231,5.04127 -8.13284,10.05323 -8.13284,10.05323 0,0 -23.491623,-61.46244 -13.808277,-80.60167 9.741857,-19.10992 25.744247,-18.78751 32.619127,-18.78751 6.90414,0 50.46456,12.83764 57.69051,12.54455 7.22594,-0.32241 11.93596,3.13613 8.13284,-17.556514 -3.74462,-20.692647 -12.52107,-48.302382 -13.45722,-54.897064 -0.93616,-6.565372 2.80846,-10.317014 2.80846,-10.317014 0,0 4.71003,-5.979178 10.64876,-5.041268 5.99723,0.96722 31.68297,10.053227 40.78122,13.804868 1.75529,0.732742 0.43882,3.224067 -1.25796,4.074048 z"
         transform="matrix(0.13353,0,0,0.13328,-4.89054,-0.40072)"
         id="path22"
         inkscape:connector-curvature="0"
         style="stroke-width:0.07737975" />
      <path
         d="m 247.69995,62.476068 c -20.39061,12.251453 -35.45685,6.594682 -43.58969,5.979178 -8.13284,-0.644813 -33.23347,-11.929047 -39.20146,-12.866957 -5.93873,-0.937911 -10.64875,5.011958 -10.64875,5.011958 0,0 -3.77387,3.751641 -2.80847,10.346323 0.93616,6.594682 9.71261,34.17511 13.45722,54.86775 3.77387,20.69265 -0.93615,17.23411 -8.13284,17.55651 -7.22594,0.32241 -50.78637,-12.54455 -57.690505,-12.54455 -6.904138,0 -22.906525,-0.29309 -32.619125,18.81683 -9.712601,19.13923 2.515914,54.54535 2.515914,54.54535 0,0 16.938542,14.44968 15.358781,9.086 0,0 -18.489047,-39.15775 -13.164669,-62.04863 0,0 2.194111,-7.855 6.260532,-10.66873 4.095675,-2.81373 15.388036,-5.33436 25.714992,-2.49132 10.32695,2.78442 44.84764,10.96183 47.9779,11.57733 3.13027,0.6155 9.7126,1.58272 14.71518,-4.07405 5.03183,-5.62746 7.54774,-7.50328 7.86954,-14.09796 0,0 0,-14.42037 -2.19411,-24.15119 -2.19411,-9.701514 -12.55032,-44.521436 -12.55032,-44.521436 0,0 38.03127,12.398003 42.00993,12.544551 7.84029,0.293097 22.55546,4.396455 34.49143,-2.491324 11.90671,-6.917089 12.22852,-10.375633 12.22852,-10.375633 z"
         transform="matrix(0.13353,0,0,0.13328,-4.89054,-0.40072)"
         id="path24"
         inkscape:connector-curvature="0"
         style="stroke-width:0.07737975" />
    </g>
    <path
       style="stroke-width:0.0763813"
       d="m 144.05011,146.36042 c 0.96541,-0.96722 0.99467,-2.49132 0.0585,-3.42923 l -32.99943,-33.00272 c -0.93616,-0.9086 -2.45741,-0.87929 -3.42282,0.0586 -0.93615,0.96722 -0.93615,2.46201 -0.0292,3.39992 l 33.02869,33.03203 c 0.9069,0.9086 2.42815,0.87929 3.3643,-0.0586 z"
       transform="matrix(0.13353,0,0,0.13328,-4.89054,-0.40072)"
       id="path26"
       inkscape:connector-curvature="0" />
    <path
       style="stroke-width:0.08087432"
       d="m 158.502,147.59143 c 0.93615,-0.93791 0.87764,-2.54994 -0.17553,-3.60509 l -36.9781,-36.98884 c -1.05317,-1.02584 -2.66219,-1.11377 -3.62759,-0.14655 -0.93616,0.93791 -0.87765,2.54994 0.17552,3.60509 l 36.9781,36.98884 c 1.02392,1.02584 2.66219,1.11377 3.6276,0.14655 z"
       transform="matrix(0.13353,0,0,0.13328,-4.89054,-0.40072)"
       id="path28"
       inkscape:connector-curvature="0" />
    <path
       style="stroke-width:0.06215341"
       d="m 124.39088,141.26054 c 0.87764,-1.05515 1.02391,-2.31547 0.35105,-2.90166 l -23.63789,-19.84267 c -0.67286,-0.55688 -1.93082,-0.17586 -2.77921,0.84998 -0.877645,1.05515 -1.023919,2.31547 -0.351058,2.87235 l 23.637898,19.87198 c 0.67286,0.55688 1.93082,0.17585 2.77921,-0.84998 z"
       transform="matrix(0.13353,0,0,0.13328,-4.89054,-0.40072)"
       id="path30"
       inkscape:connector-curvature="0" />
    <path
       style="stroke-width:0.07737975"
       d="m 232.80924,72.353436 c 0.93616,-0.96722 0.93616,-2.491324 0,-3.458544 L 198.93216,35.04219 c -0.93615,-0.93791 -2.51592,-0.93791 -3.45207,0 -0.96541,0.96722 -0.96541,2.491325 0,3.458545 l 33.84783,33.852701 c 0.96541,0.93791 2.51591,0.93791 3.48132,0 z"
       transform="matrix(0.13353,0,0,0.13328,-4.89054,-0.40072)"
       id="path32"
       inkscape:connector-curvature="0" />
    <path
       style="stroke-width:0.07388517"
       d="m 213.93988,74.258566 c 1.05318,-0.820671 1.28721,-2.286156 0.52659,-3.253376 L 187.61054,36.419746 c -0.76062,-0.93791 -2.22336,-1.084459 -3.30579,-0.234477 -1.05317,0.820671 -1.31647,2.256846 -0.55584,3.253376 l 26.85592,34.556134 c 0.76063,0.96722 2.25262,1.084459 3.33505,0.263787 z"
       transform="matrix(0.13353,0,0,0.13328,-4.89054,-0.40072)"
       id="path34"
       inkscape:connector-curvature="0" />
  </g>
</svg>

<svg width="128" xmlns="http://www.w3.org/2000/svg" height="128" viewBox="0 0 128 128" xmlns:xlink="http://www.w3.org/1999/xlink">
<g style="fill:#d68b85;stroke:#d68b85">
<path style="stroke-width:.31" d="M 110.787384 199.191154 C 111.56995 198.114023 111.321284 196.575263 110.224228 195.798556 L 71.344571 167.881069 C 70.247515 167.097035 68.711637 167.33884 67.929071 168.437953 C 67.146504 169.537067 67.39517 171.053844 68.492226 171.837878 L 107.401138 199.755366 C 108.498194 200.561382 110.004817 200.290268 110.787384 199.191154 Z " transform="matrix(.5341 0 0 .5331 -19.56217 -1.60287)"/>
<path style="stroke-width:.301" d="M 104.93642 182.338078 C 105.909142 181.407495 106.011534 179.920028 105.13389 178.989445 L 74.094524 146.016034 C 73.21688 145.092779 71.732197 145.092779 70.73022 146.016034 C 69.757497 146.924635 69.662419 148.434084 70.540064 149.364667 L 101.572115 182.338078 C 102.44976 183.268661 103.963697 183.268661 104.93642 182.338078 Z " transform="matrix(.5341 0 0 .5331 -19.56217 -1.60287)"/>
<path style="stroke-width:.31" d="M 195.79458 99.633437 C 196.745362 98.680872 196.745362 97.142113 195.79458 96.189548 L 161.932125 62.336847 C 160.981343 61.384281 159.445465 61.384281 158.494683 62.336847 C 157.543902 63.289412 157.543902 64.828171 158.494683 65.780736 L 192.357139 99.633437 C 193.307921 100.586002 194.843799 100.586002 195.79458 99.633437 Z " transform="matrix(.5341 0 0 .5331 -19.56217 -1.60287)"/>
<path style="stroke-width:.304" d="M 193.849135 116.926159 C 194.843799 115.995576 194.916936 114.486127 194.01735 113.533562 L 162.444084 79.99594 C 161.56644 79.043374 160.059816 79.043374 159.057839 79.944648 C 158.085116 80.875231 158.011979 82.392007 158.889624 83.344573 L 190.48483 116.874867 C 191.362475 117.827432 192.869098 117.856742 193.849135 116.926159 Z " transform="matrix(.5341 0 0 .5331 -19.56217 -1.60287)"/>
<path style="stroke-width:.249" d="M 176.90328 119.395501 C 178.022277 118.662759 178.563491 117.490371 178.095414 116.757628 L 161.398224 90.767254 C 160.937461 90.034511 159.620994 90.034511 158.494683 90.767254 C 157.353745 91.499996 156.812531 92.672384 157.280608 93.405126 L 173.999739 119.395501 C 174.467816 120.128244 175.755028 120.128244 176.90328 119.395501 Z " transform="matrix(.5341 0 0 .5331 -19.56217 -1.60287)"/>
<path style="stroke-width:.295" d="M 166.174074 140.864855 C 167.124856 139.91229 167.197993 138.446805 166.349603 137.589496 L 135.74906 106.982844 C 134.90067 106.132863 133.408674 106.206137 132.457893 107.158702 C 131.507111 108.111267 131.433974 109.576752 132.311618 110.456043 L 162.882907 141.033386 C 163.760551 141.890694 165.223292 141.81742 166.174074 140.864855 Z " transform="matrix(.5341 0 0 .5331 -19.56217 -1.60287)"/>
<path style="stroke-width:.232" d="M 100.182511 159.747628 C 101.330763 159.036868 101.959741 157.937754 101.572115 157.300268 L 87.676075 134.416721 C 87.288449 133.779235 86.045119 133.830527 84.896867 134.511978 C 83.726674 135.222738 83.119637 136.321852 83.507263 136.959338 L 97.403303 159.842884 C 97.790929 160.48037 99.034259 160.429078 100.182511 159.747628 Z " transform="matrix(.5341 0 0 .5331 -19.56217 -1.60287)"/>
<g style="stroke-width:.31">
<path d="M 231.704873 47.117786 C 226.658417 49.711694 186.242881 36.471038 186.242881 36.471038 C 186.242881 36.471038 196.577147 71.276304 198.771259 80.970487 C 200.96537 90.693979 200.96537 105.129006 200.96537 105.129006 C 200.672822 111.701705 198.164221 113.577526 193.139705 119.219643 C 188.11519 124.869087 181.532855 123.938504 178.417217 123.301018 C 175.272323 122.692842 140.773575 114.530091 130.43931 111.701705 C 120.075789 108.887974 108.790742 111.408608 104.717008 114.215012 C 100.643275 117.050725 98.449163 124.869087 98.449163 124.869087 C 93.110158 147.774616 115.687566 193.842134 115.687566 193.842134 C 113.807944 198.876075 107.547412 203.880706 107.547412 203.880706 C 107.547412 203.880706 84.041163 142.425596 93.74645 123.301018 C 103.473678 104.17644 119.468752 104.49152 126.365576 104.49152 C 133.2624 104.49152 176.830143 117.343822 184.04877 117.050725 C 191.260083 116.728319 195.970109 120.179536 192.188924 99.486889 C 188.436993 78.801569 179.660547 51.199161 178.709765 44.604479 C 177.780924 38.03178 181.532855 34.272811 181.532855 34.272811 C 181.532855 34.272811 186.242881 28.308287 192.188924 29.23887 C 198.164221 30.191435 223.857268 39.277442 232.948203 43.043738 C 234.703493 43.77648 233.387026 46.267805 231.704873 47.117786 Z " transform="matrix(.5341 0 0 .5331 -19.56217 -1.60287)"/>
<path d="M 247.699947 62.483395 C 227.31665 74.720194 212.250417 69.078077 204.110263 68.440591 C 195.970109 67.810433 170.8841 56.526199 164.908803 55.595616 C 158.962761 54.643051 154.252734 60.600247 154.252734 60.600247 C 154.252734 60.600247 150.500804 64.366543 151.451585 70.961225 C 152.380426 77.526598 161.156872 105.129006 164.908803 125.821652 C 168.689989 146.506972 163.979962 143.063082 156.768649 143.378162 C 149.550022 143.700568 105.982279 130.826283 99.085455 130.826283 C 92.188631 130.826283 76.193558 130.533186 66.46633 149.657764 C 56.761043 168.782342 68.974931 204.203112 68.974931 204.203112 C 68.974931 204.203112 85.920786 218.638139 84.333712 213.289119 C 84.333712 213.289119 65.859292 174.10938 71.169042 151.218506 C 71.169042 151.218506 73.363154 143.378162 77.436888 140.549776 C 81.532563 137.736045 92.81761 135.222738 103.159189 138.058451 C 113.493455 140.864855 147.992203 149.020278 151.137096 149.657764 C 154.252734 150.265941 160.835069 151.218506 165.859585 145.576389 C 170.8841 139.934272 173.392701 138.058451 173.70719 131.463769 C 173.70719 131.463769 173.70719 117.050725 171.513079 107.327233 C 169.318967 97.603741 158.962761 62.798474 158.962761 62.798474 C 158.962761 62.798474 196.994028 75.181822 200.987311 75.32837 C 208.812976 75.650777 223.535465 79.724825 235.456804 72.837046 C 247.378144 65.927285 247.699947 62.483395 247.699947 62.483395 Z " transform="matrix(.5341 0 0 .5331 -19.56217 -1.60287)"/>
</g>
<path style="stroke-width:.306" d="M 144.064743 146.360423 C 145.015525 145.407858 145.037466 143.869099 144.115939 142.938516 L 111.101873 109.943124 C 110.180346 109.012541 108.644468 109.034523 107.693686 109.987088 C 106.742905 110.939653 106.742905 112.45643 107.664432 113.387013 L 140.678497 146.411715 C 141.600024 147.334971 143.113961 147.312988 144.064743 146.360423 Z " transform="matrix(.5341 0 0 .5331 -19.56217 -1.60287)"/>
<path style="stroke-width:.324" d="M 158.494683 147.606085 C 159.445465 146.65352 159.372328 145.041487 158.326468 143.993665 L 121.341061 107.012154 C 120.295201 105.957005 118.686185 105.88373 117.735404 106.836296 C 116.784622 107.788861 116.857759 109.400894 117.903619 110.456043 L 154.889027 147.459537 C 155.912945 148.485376 157.543902 148.558651 158.494683 147.606085 Z " transform="matrix(.5341 0 0 .5331 -19.56217 -1.60287)"/>
<path style="stroke-width:.249" d="M 124.390876 141.253208 C 125.26852 140.205387 125.414794 138.937742 124.756561 138.373531 L 101.111352 118.51621 C 100.423863 117.951999 99.180533 118.340352 98.332144 119.366191 C 97.454499 120.421341 97.308225 121.688985 97.966458 122.253197 L 121.611668 142.110517 C 122.291842 142.674729 123.535172 142.279048 124.390876 141.253208 Z " transform="matrix(.5341 0 0 .5331 -19.56217 -1.60287)"/>
<path style="stroke-width:.31" d="M 232.801929 72.353436 C 233.752711 71.400871 233.752711 69.862112 232.801929 68.909546 L 198.939474 35.049518 C 197.988692 34.096953 196.430873 34.096953 195.480091 35.049518 C 194.529309 36.002083 194.529309 37.540842 195.480091 38.493407 L 229.342547 72.353436 C 230.293328 73.306001 231.851148 73.306001 232.801929 72.353436 Z " transform="matrix(.5341 0 0 .5331 -19.56217 -1.60287)"/>
<path style="stroke-width:.296" d="M 213.93257 74.258566 C 214.985743 73.42324 215.227095 71.987065 214.473784 71.00519 L 187.603231 36.419746 C 186.849919 35.467181 185.387178 35.342615 184.312063 36.177941 C 183.244262 37.00594 182.995596 38.449443 183.756222 39.42399 L 210.619461 73.987452 C 211.372773 74.961999 212.864769 75.086565 213.93257 74.258566 Z " transform="matrix(.5341 0 0 .5331 -19.56217 -1.60287)"/>
</g>
</svg>
